X:301
T:Saut de Cadichou
R:Rondeau en cha\^ine
C:trad
N:original url: www.wolfram.claranet.de
Z:Wolfram Dietz d'apr\`es Marie-Claire Carr\'e-Viala
M:2/4
L:1/8
K:G
|:G>B dd| ee d2| g>d dd| e2d2 :|
|:cA/c/ BG/B/| AF/A/ BG| cA/c/ BG/B/| AA G2:|
